logo/logo.svg

<?xml version="1.0" encoding="UTF-8" standalone="no"?>
<!-- Created with Inkscape (http://www.inkscape.org/) -->

<svg
   xmlns:dc="http://purl.org/dc/elements/1.1/"
   xmlns:cc="http://creativecommons.org/ns#"
   xmlns:rdf="http://www.w3.org/1999/02/22-rdf-syntax-ns#"
   xmlns:svg="http://www.w3.org/2000/svg"
   xmlns="http://www.w3.org/2000/svg"
   xmlns:xlink="http://www.w3.org/1999/xlink"
   xmlns:sodipodi="http://sodipodi.sourceforge.net/DTD/sodipodi-0.dtd"
   xmlns:inkscape="http://www.inkscape.org/namespaces/inkscape"
   width="683.15765"
   height="171.66797"
   viewBox="0 0 683.15767 171.66798"
   id="svg2"
   version="1.1"
   inkscape:version="0.91 r13725"
   sodipodi:docname="logo.svg"
   inkscape:export-filename="/Users/braden/projects/fnx/logo/logo.png"
   inkscape:export-xdpi="90"
   inkscape:export-ydpi="90">
  <defs
     id="defs4">
    <linearGradient
       inkscape:collect="always"
       id="linearGradient4431">
      <stop
         style="stop-color:#000000;stop-opacity:1;"
         offset="0"
         id="stop4433" />
      <stop
         style="stop-color:#000000;stop-opacity:0;"
         offset="1"
         id="stop4435" />
    </linearGradient>
    <linearGradient
       inkscape:collect="always"
       xlink:href="#linearGradient4431"
       id="linearGradient4437"
       x1="610.05542"
       y1="-28.357981"
       x2="610.05542"
       y2="133.36638"
       gradientUnits="userSpaceOnUse" />
  </defs>
  <sodipodi:namedview
     id="base"
     pagecolor="#ffffff"
     bordercolor="#666666"
     borderopacity="1.0"
     inkscape:pageopacity="0.0"
     inkscape:pageshadow="2"
     inkscape:zoom="0.7"
     inkscape:cx="359.53048"
     inkscape:cy="-55.797719"
     inkscape:document-units="px"
     inkscape:current-layer="text4362"
     showgrid="false"
     inkscape:window-width="1276"
     inkscape:window-height="756"
     inkscape:window-x="4"
     inkscape:window-y="0"
     inkscape:window-maximized="1"
     fit-margin-top="20"
     fit-margin-left="20"
     fit-margin-right="20"
     fit-margin-bottom="20"
     units="px">
    <inkscape:grid
       type="xygrid"
       id="grid4144"
       originx="135.0759"
       originy="1440.2043" />
  </sodipodi:namedview>
  <metadata
     id="metadata7">
    <rdf:RDF>
      <cc:Work
         rdf:about="">
        <dc:format>image/svg+xml</dc:format>
        <dc:type
           rdf:resource="http://purl.org/dc/dcmitype/StillImage" />
        <dc:title></dc:title>
      </cc:Work>
    </rdf:RDF>
  </metadata>
  <g
     inkscape:label="Layer 1"
     inkscape:groupmode="layer"
     id="layer1"
     transform="translate(135.07586,-2320.8983)">
    <g
       style="font-style:normal;font-variant:normal;font-weight:normal;font-stretch:normal;font-size:65.03916931px;line-height:129.99999523%;font-family:Courier;-inkscape-font-specification:'Courier, Normal';text-align:start;letter-spacing:0px;word-spacing:0px;writing-mode:lr-tb;text-anchor:start;fill:#00aad4;fill-opacity:1;stroke:none;stroke-width:1px;stroke-linecap:butt;stroke-linejoin:miter;stroke-opacity:1"
       id="text4362"
       transform="matrix(1.5110399,0,0,1.5110399,61.215975,-1259.592)">
      <path
         style="font-style:normal;font-variant:normal;font-weight:900;font-stretch:normal;font-size:65.03874969px;line-height:129.99999523%;font-family:'Avenir Next';-inkscape-font-specification:'Avenir Next, Heavy';text-align:start;writing-mode:lr-tb;text-anchor:start;fill:#ffcc00;fill-opacity:1;stroke:none"
         d="m 76.283203,20 c -8.040632,0 -14.741141,1.117943 -20.101562,3.351562 -5.24874,2.233469 -9.433641,5.304284 -12.560547,9.212891 -3.126916,3.796941 -5.363029,8.206703 -6.703125,13.232422 -1.22843,5.025114 -1.84375,10.275967 -1.84375,15.748047 l 0,2.009766 -15.074219,0 0,27.638671 15.074219,0 0,60.474611 38.527343,0 0,-60.474611 16.296876,0 0,60.474611 38.697262,0 0,-46.9043 c 0,-3.90861 0.7803,-6.868617 2.34375,-8.878904 1.67513,-2.121651 3.7967,-3.183594 6.36524,-3.183594 2.79188,0 4.85911,0.893034 6.19922,2.679687 1.45178,1.787107 2.17773,4.915881 2.17773,9.382811 l 0,46.9043 38.86328,0 29.65039,0 14.40821,-19.93555 13.5664,19.93555 44.22461,0 -33.33594,-45.23047 31.66016,-42.882812 -42.54883,0 -12.56054,18.427734 -12.73438,-18.427734 -43.88867,0 31.66015,42.882812 -20.10156,26.73633 0,-35.11133 c 0,-4.355573 -0.50273,-8.713089 -1.50781,-13.068359 -0.8934,-4.355422 -2.57048,-8.262666 -5.02734,-11.72461 -2.34519,-3.573458 -5.58091,-6.475365 -9.71289,-8.708984 -4.02033,-2.233619 -9.102,-3.351563 -15.24415,-3.351563 -5.69544,0 -10.77712,1.226794 -15.24414,3.683594 -4.35534,2.345285 -7.65125,5.138341 -9.88476,8.376953 l -0.33203,0 0,-9.714843 -35.392581,0 -2.300781,0 -16.296876,0 0,-1.171876 c 0,-3.57376 0.725953,-6.533621 2.177735,-8.878906 1.563455,-2.345285 4.246003,-3.517578 8.042969,-3.517578 1.340108,0 2.679426,0.167107 4.019531,0.501953 1.340105,0.223483 2.512501,0.559196 3.517578,1.00586 L 93.873047,22.513672 C 91.52786,21.620345 88.622095,21.005071 85.160156,20.669922 81.809892,20.22341 78.851738,20 76.283203,20 Z M 640.9082,21.726562 c -3.22114,0.123906 -6.11004,2.312807 -6.99023,5.597657 L 604.18164,138.29883 c -1.08331,4.04294 1.3008,8.17049 5.34375,9.2539 l 14.38086,3.85352 c 4.04297,1.08326 8.1706,-1.30066 9.25391,-5.34375 L 662.89648,35.087891 c 1.08331,-4.042939 -1.30079,-8.168689 -5.34375,-9.251953 l -14.38085,-3.853516 c -0.75806,-0.203235 -1.52032,-0.284418 -2.26368,-0.25586 z m -32.38476,7.876954 c -2.67817,-0.07253 -5.30339,1.291045 -6.74219,3.783203 l -57.44531,99.496091 c -2.09279,3.62484 -0.8592,8.22753 2.76562,10.32031 l 12.89453,7.44532 c 3.62482,2.09279 8.22753,0.85921 10.32032,-2.76563 l 57.44531,-99.496091 c 2.09279,-3.624834 0.85919,-8.229476 -2.76563,-10.322266 l -12.89453,-7.443359 c -1.13275,-0.653979 -2.36077,-0.984789 -3.57812,-1.017578 z m -43.19532,15.171875 c -1.93123,0 -3.86197,0.738988 -5.34179,2.21875 l -81.24024,81.240239 c -2.95965,2.95966 -2.95965,7.72391 0,10.68359 l 10.5293,10.5293 c 2.95966,2.95967 7.72395,2.95967 10.68359,0 l 81.24024,-81.238286 c 2.95964,-2.959673 2.95964,-7.726025 0,-10.685546 l -10.5293,-10.529297 c -1.47982,-1.479762 -3.41053,-2.21875 -5.3418,-2.21875 z m -63.51562,21.43164 c -1.21734,0.03324 -2.44538,0.361496 -3.57812,1.015625 l -99.4961,57.445314 c -3.62482,2.09279 -4.85841,6.69548 -2.76562,10.32031 l 7.44531,12.89453 c 2.09279,3.62484 6.69548,4.85842 10.32031,2.76563 l 99.4961,-57.445315 c 3.62479,-2.09279 4.85841,-6.695479 2.76562,-10.320313 l -7.44336,-12.894531 c -1.4388,-2.492007 -4.06597,-3.853629 -6.74414,-3.78125 z M 397.73242,92.4375 c -0.74334,-0.02871 -1.50366,0.05278 -2.26172,0.255859 L 284.49414,122.42773 c -4.04296,1.08327 -6.4251,5.21082 -5.3418,9.25391 l 3.85352,14.38281 c 1.08331,4.04294 5.21094,6.42506 9.25391,5.3418 l 110.97461,-29.73633 c 4.04294,-1.08326 6.4251,-5.20901 5.34179,-9.25195 l -3.85351,-14.382814 c -0.8802,-3.284849 -3.76908,-5.473297 -6.99024,-5.597656 z"
         id="path4312"
         transform="matrix(0.66179589,0,0,0.66179589,-129.90513,2369.5538)"
         inkscape:connector-curvature="0" />
      <path
         style="font-style:normal;font-variant:normal;font-weight:900;font-stretch:normal;font-size:65.03874969px;line-height:129.99999523%;font-family:'Avenir Next';-inkscape-font-specification:'Avenir Next, Heavy';text-align:start;writing-mode:lr-tb;text-anchor:start;opacity:0.27099998;fill:url(#linearGradient4437);fill-opacity:1;stroke:none"
         d="m 608.78125,26.494141 -24.59961,91.804689 c -1.08331,4.04294 1.3008,8.17049 5.34375,9.2539 l 14.38086,3.85352 c 1.68672,0.45194 3.38602,0.29366 4.875,-0.33008 l 0,-104.582029 z m -45.36328,18.697265 -39.08203,67.691404 c -2.09279,3.62484 -0.8592,8.22754 2.76562,10.32031 l 12.89453,7.44532 c 3.62482,2.09279 8.22753,0.85921 10.32032,-2.76563 l 13.10156,-22.6914 0,-60.000004 z m -66.39844,24.769532 -38.27344,38.273442 c -2.95965,2.95965 -2.95965,7.72391 0,10.68359 l 10.5293,10.5293 c 2.95966,2.95967 7.72395,2.95967 10.68359,0 l 17.06055,-17.06055 0,-42.425782 z m -108.18164,28.875 -10.09961,5.832032 c -3.62482,2.09279 -4.85841,6.69548 -2.76562,10.32031 l 7.44531,12.89453 c 1.20024,2.0789 3.2265,3.36589 5.41992,3.69531 l 0,-32.742182 z m -122.44336,3.082032 -1.90039,0.50976 c -4.04296,1.08327 -6.4251,5.21082 -5.3418,9.25391 l 3.85352,14.38281 c 0.52728,1.96784 1.77973,3.53694 3.38867,4.50977 l 0,-28.65625 z"
         id="path4317"
         inkscape:connector-curvature="0"
         transform="matrix(0.66179589,0,0,0.66179589,-116.66921,2382.7897)" />
    </g>
  </g>
</svg>

<?xml version="1.0" encoding="UTF-8" standalone="no"?>
<!-- Created with Inkscape (http://www.inkscape.org/) -->

<svg
   xmlns:dc="http://purl.org/dc/elements/1.1/"
   xmlns:cc="http://creativecommons.org/ns#"
   xmlns:rdf="http://www.w3.org/1999/02/22-rdf-syntax-ns#"
   xmlns:svg="http://www.w3.org/2000/svg"
   xmlns="http://www.w3.org/2000/svg"
   xmlns:xlink="http://www.w3.org/1999/xlink"
   xmlns:sodipodi="http://sodipodi.sourceforge.net/DTD/sodipodi-0.dtd"
   xmlns:inkscape="http://www.inkscape.org/namespaces/inkscape"
   width="683.15765"
   height="171.66794"
   viewBox="0 0 683.15767 171.66794"
   id="svg2"
   version="1.1"
   inkscape:version="0.91 r13725"
   sodipodi:docname="logo.svg"
   inkscape:export-filename="/Users/braden/projects/fnx/logo/logo.png"
   inkscape:export-xdpi="90"
   inkscape:export-ydpi="90">
  <defs
     id="defs4">
    <linearGradient
       inkscape:collect="always"
       id="linearGradient4431">
      <stop
         style="stop-color:#000000;stop-opacity:1;"
         offset="0"
         id="stop4433" />
      <stop
         style="stop-color:#000000;stop-opacity:0;"
         offset="1"
         id="stop4435" />
    </linearGradient>
    <linearGradient
       inkscape:collect="always"
       id="linearGradient4362">
      <stop
         style="stop-color:#279f8e;stop-opacity:1"
         offset="0"
         id="stop4364" />
      <stop
         style="stop-color:#216778;stop-opacity:1"
         offset="1"
         id="stop4366" />
    </linearGradient>
    <radialGradient
       inkscape:collect="always"
       xlink:href="#linearGradient4362"
       id="radialGradient4379"
       cx="407.29312"
       cy="139.43045"
       fx="407.29312"
       fy="139.43045"
       r="321.57883"
       gradientTransform="matrix(0.63520863,1.1002136,-1.0850369,0.62644634,181.29277,-383.90685)"
       gradientUnits="userSpaceOnUse" />
    <linearGradient
       inkscape:collect="always"
       xlink:href="#linearGradient4431"
       id="linearGradient4437"
       x1="265.92407"
       y1="80.509232"
       x2="273.06699"
       y2="130.50923"
       gradientUnits="userSpaceOnUse" />
  </defs>
  <sodipodi:namedview
     id="base"
     pagecolor="#ffffff"
     bordercolor="#666666"
     borderopacity="1.0"
     inkscape:pageopacity="0.0"
     inkscape:pageshadow="2"
     inkscape:zoom="0.7"
     inkscape:cx="331.71849"
     inkscape:cy="58.487883"
     inkscape:document-units="px"
     inkscape:current-layer="text4362"
     showgrid="false"
     inkscape:window-width="1276"
     inkscape:window-height="756"
     inkscape:window-x="4"
     inkscape:window-y="0"
     inkscape:window-maximized="1"
     fit-margin-top="20"
     fit-margin-left="20"
     fit-margin-right="20"
     fit-margin-bottom="20"
     units="px">
    <inkscape:grid
       type="xygrid"
       id="grid4144"
       originx="135.0759"
       originy="1440.204" />
  </sodipodi:namedview>
  <metadata
     id="metadata7">
    <rdf:RDF>
      <cc:Work
         rdf:about="">
        <dc:format>image/svg+xml</dc:format>
        <dc:type
           rdf:resource="http://purl.org/dc/dcmitype/StillImage" />
        <dc:title></dc:title>
      </cc:Work>
    </rdf:RDF>
  </metadata>
  <g
     inkscape:label="Layer 1"
     inkscape:groupmode="layer"
     id="layer1"
     transform="translate(135.07586,-2320.8983)">
    <g
       style="font-style:normal;font-variant:normal;font-weight:normal;font-stretch:normal;font-size:65.03916931px;line-height:129.99999523%;font-family:Courier;-inkscape-font-specification:'Courier, Normal';text-align:start;letter-spacing:0px;word-spacing:0px;writing-mode:lr-tb;text-anchor:start;fill:#00aad4;fill-opacity:1;stroke:none;stroke-width:1px;stroke-linecap:butt;stroke-linejoin:miter;stroke-opacity:1"
       id="text4362"
       transform="matrix(1.5110399,0,0,1.5110399,61.215975,-1259.592)">
      <path
         style="font-style:normal;font-variant:normal;font-weight:900;font-stretch:normal;font-size:65.03874969px;line-height:129.99999523%;font-family:'Avenir Next';-inkscape-font-specification:'Avenir Next, Heavy';text-align:start;writing-mode:lr-tb;text-anchor:start;fill:url(#radialGradient4379);fill-opacity:1;stroke:none"
         d="M 76.283203 20 C 68.242571 20 61.542062 21.117943 56.181641 23.351562 C 50.932901 25.585031 46.748 28.655846 43.621094 32.564453 C 40.494178 36.361394 38.258065 40.771156 36.917969 45.796875 C 35.689539 50.821989 35.074219 56.072842 35.074219 61.544922 L 35.074219 63.554688 L 20 63.554688 L 20 91.193359 L 35.074219 91.193359 L 35.074219 151.66797 L 73.601562 151.66797 L 73.601562 91.193359 L 89.898438 91.193359 L 89.898438 151.66797 L 128.5957 151.66797 L 128.5957 104.76367 C 128.5957 100.85506 129.376 97.895053 130.93945 95.884766 C 132.61458 93.763115 134.73615 92.701172 137.30469 92.701172 C 140.09657 92.701172 142.1638 93.594206 143.50391 95.380859 C 144.95569 97.167966 145.68164 100.29674 145.68164 104.76367 L 145.68164 151.66797 L 184.54492 151.66797 L 214.19531 151.66797 L 228.60352 131.73242 L 242.16992 151.66797 L 286.39453 151.66797 L 253.05859 106.4375 L 284.71875 63.554688 L 242.16992 63.554688 L 229.60938 81.982422 L 216.875 63.554688 L 172.98633 63.554688 L 204.64648 106.4375 L 184.54492 133.17383 L 184.54492 98.0625 C 184.54492 93.706927 184.04219 89.349411 183.03711 84.994141 C 182.14371 80.638719 180.46663 76.731475 178.00977 73.269531 C 175.66458 69.696073 172.42886 66.794166 168.29688 64.560547 C 164.27655 62.326928 159.19488 61.208984 153.05273 61.208984 C 147.35729 61.208984 142.27561 62.435778 137.80859 64.892578 C 133.45325 67.237863 130.15734 70.030919 127.92383 73.269531 L 127.5918 73.269531 L 127.5918 63.554688 L 92.199219 63.554688 L 89.898438 63.554688 L 73.601562 63.554688 L 73.601562 62.382812 C 73.601562 58.809052 74.327515 55.849191 75.779297 53.503906 C 77.342752 51.158621 80.0253 49.986328 83.822266 49.986328 C 85.162374 49.986328 86.501692 50.153435 87.841797 50.488281 C 89.181902 50.711764 90.354298 51.047477 91.359375 51.494141 L 93.873047 22.513672 C 91.52786 21.620345 88.622095 21.005071 85.160156 20.669922 C 81.809892 20.22341 78.851738 20 76.283203 20 z M 640.9082 21.726562 C 637.68706 21.850468 634.79816 24.039369 633.91797 27.324219 L 604.18164 138.29883 C 603.09833 142.34177 605.48244 146.46932 609.52539 147.55273 L 623.90625 151.40625 C 627.94922 152.48951 632.07685 150.10559 633.16016 146.0625 L 662.89648 35.087891 C 663.97979 31.044952 661.59569 26.919202 657.55273 25.835938 L 643.17188 21.982422 C 642.41382 21.779187 641.65156 21.698004 640.9082 21.726562 z M 608.52344 29.603516 C 605.84527 29.530986 603.22005 30.894561 601.78125 33.386719 L 544.33594 132.88281 C 542.24315 136.50765 543.47674 141.11034 547.10156 143.20312 L 559.99609 150.64844 C 563.62091 152.74123 568.22362 151.50765 570.31641 147.88281 L 627.76172 48.386719 C 629.85451 44.761885 628.62091 40.157243 624.99609 38.064453 L 612.10156 30.621094 C 610.96881 29.967115 609.74079 29.636305 608.52344 29.603516 z M 565.32812 44.775391 C 563.39689 44.775391 561.46615 45.514379 559.98633 46.994141 L 478.74609 128.23438 C 475.78644 131.19404 475.78644 135.95829 478.74609 138.91797 L 489.27539 149.44727 C 492.23505 152.40694 496.99934 152.40694 499.95898 149.44727 L 581.19922 68.208984 C 584.15886 65.249311 584.15886 60.482959 581.19922 57.523438 L 570.66992 46.994141 C 569.1901 45.514379 567.25939 44.775391 565.32812 44.775391 z M 501.8125 66.207031 C 500.59516 66.240271 499.36712 66.568527 498.23438 67.222656 L 398.73828 124.66797 C 395.11346 126.76076 393.87987 131.36345 395.97266 134.98828 L 403.41797 147.88281 C 405.51076 151.50765 410.11345 152.74123 413.73828 150.64844 L 513.23438 93.203125 C 516.85917 91.110335 518.09279 86.507646 516 82.882812 L 508.55664 69.988281 C 507.11784 67.496274 504.49067 66.134652 501.8125 66.207031 z M 397.73242 92.4375 C 396.98908 92.40879 396.22876 92.49028 395.4707 92.693359 L 284.49414 122.42773 C 280.45118 123.511 278.06904 127.63855 279.15234 131.68164 L 283.00586 146.06445 C 284.08917 150.10739 288.2168 152.48951 292.25977 151.40625 L 403.23438 121.66992 C 407.27732 120.58666 409.65948 116.46091 408.57617 112.41797 L 404.72266 98.035156 C 403.84246 94.750307 400.95358 92.561859 397.73242 92.4375 z "
         id="path4312"
         transform="matrix(0.66179589,0,0,0.66179589,-129.90513,2369.5538)" />
      <path
         style="font-style:normal;font-variant:normal;font-weight:900;font-stretch:normal;font-size:65.03874969px;line-height:129.99999523%;font-family:'Avenir Next';-inkscape-font-specification:'Avenir Next, Heavy';text-align:start;writing-mode:lr-tb;text-anchor:start;opacity:0.219;fill:url(#linearGradient4437);fill-opacity:1;stroke:none"
         d="m 608.78125,26.494141 -24.59961,91.804689 c -1.08331,4.04294 1.3008,8.17049 5.34375,9.2539 l 14.38086,3.85352 c 1.68672,0.45194 3.38602,0.29366 4.875,-0.33008 l 0,-104.582029 z m -45.36328,18.697265 -39.08203,67.691404 c -2.09279,3.62484 -0.8592,8.22754 2.76562,10.32031 l 12.89453,7.44532 c 3.62482,2.09279 8.22753,0.85921 10.32032,-2.76563 l 13.10156,-22.6914 0,-60.000004 z m -66.39844,24.769532 -38.27344,38.273442 c -2.95965,2.95965 -2.95965,7.72391 0,10.68359 l 10.5293,10.5293 c 2.95966,2.95967 7.72395,2.95967 10.68359,0 l 17.06055,-17.06055 0,-42.425782 z m -108.18164,28.875 -10.09961,5.832032 c -3.62482,2.09279 -4.85841,6.69548 -2.76562,10.32031 l 7.44531,12.89453 c 1.20024,2.0789 3.2265,3.36589 5.41992,3.69531 l 0,-32.742182 z m -122.44336,3.082032 -1.90039,0.50976 c -4.04296,1.08327 -6.4251,5.21082 -5.3418,9.25391 l 3.85352,14.38281 c 0.52728,1.96784 1.77973,3.53694 3.38867,4.50977 l 0,-28.65625 z"
         id="path4317"
         inkscape:connector-curvature="0"
         transform="matrix(0.66179589,0,0,0.66179589,-116.66921,2382.7897)" />
    </g>
  </g>
</svg>
